X:635
T: Mick Mahony's #2
T: Cullen Slide #2
S: "Johnny O'Leary of Sliabh Luachra" (#111)
Z: B.Black
L: 1/8
M: 2/4
Q: 360
R: slide
K: D
d2e f2f baf a2f|e2A cBA e2A cBA|
d2e f2f baf a2f|e2A cBA d3 d3 :|
d2e f2e dcd Bcd|e2A cBA eAA cBA|
d2e f2e dcd Bcd|e2A cBA d3 d3 :|
